src/assets/emoji/noto-emoji/1F69E.svg

<svg enable-background="new 0 0 128 128" viewBox="0 0 128 128" xmlns="http://www.w3.org/2000/svg" xmlns:xlink="http://www.w3.org/1999/xlink"><path d="M4.02,44l29.11-24.97C43.98,10,44.64,11,52.04,15.71l32.15,20.45l18.96-19.44 c3.62-4.56,6.19-7.44,10.88-0.88l9.92,12.28l0.04,95.88L4.02,124V44z" fill="#81C784"/><g opacity=".2"><path d="m109 15c0.08 0.02 0.92 0.27 2.58 2.59 0.03 0.05 0.07 0.1 0.11 0.14l9.26 11.45 0.04 91.81-113.97 0.01v-75.62l28.02-24.05c4.69-3.9 7.74-6.15 9.46-6.15 1.14 0 2.74 1.03 5.17 2.58l0.75 0.48 32.16 20.46c0.5 0.32 1.05 0.47 1.61 0.47 0.79 0 1.57-0.31 2.15-0.91l18.96-19.44c0.07-0.07 0.14-0.15 0.2-0.23 0.82-1.04 2.75-3.47 3.5-3.59m0-3c-2.01 0-3.75 2.08-5.86 4.72l-18.95 19.45-32.15-20.46c-3.38-2.16-5.35-3.53-7.53-3.53-2.59 0-5.48 1.95-11.38 6.85l-29.11 24.97v80h119.96l-0.04-95.88-9.92-12.28c-1.97-2.75-3.56-3.84-5.02-3.84z" fill="#424242"/></g><rect x="4.04" y="101" width="119.85" height="23" fill="#8D6E63"/><rect x="4.04" y="101" width="119.92" height="7" fill="#424242"/><g opacity=".2"><path d="m121.89 103v19h-115.85v-19h115.85m2-2h-119.85v23h119.85v-23z" fill="#eee"/></g><circle cx="33" cy="99" r="6"/><circle cx="50" cy="99" r="6"/><circle cx="101" cy="99" r="6"/><circle cx="118" cy="99" r="6"/><path d="M20,37.08V92c0,3.3,2.7,6,6,6h98l0-60.92H20z" fill="#FFF8E1"/><path d="m64.04 68.25h-8.11c-2.21 0-4-1.79-4-4v-16.08c0-2.21 1.79-4 4-4h8.11c2.21 0 4 1.79 4 4v16.08c0 2.21-1.79 4-4 4z" fill="#4FC3F7"/><path d="m88.09 68.25h-8.11c-2.21 0-4-1.79-4-4v-16.08c0-2.21 1.79-4 4-4h8.11c2.21 0 4 1.79 4 4v16.08c0 2.21-1.79 4-4 4z" fill="#4FC3F7"/><path d="m112 68.25h-8.11c-2.21 0-4-1.79-4-4v-16.08c0-2.21 1.79-4 4-4h8.11c2.21 0 4 1.79 4 4v16.08c0 2.21-1.79 4-4 4z" fill="#4FC3F7"/><defs><path id="c" d="M20,37.08V92c0,3.3,2.7,6,6,6h98l0-60.92H20z"/></defs><clipPath id="b"><use xlink:href="#c"/></clipPath><linearGradient id="a" x1="72" x2="72" y1="73.25" y2="100" gradientUnits="userSpaceOnUse"><stop stop-color="#EF5350" offset=".0067653"/><stop stop-color="#D32F2F" offset="1"/></linearGradient><rect x="20" y="74.14" width="104" height="31.72" clip-path="url(#b)" fill="url(#a)"/><g opacity=".2"><path d="m64.04 46.17c1.1 0 2 0.9 2 2v16.08c0 1.1-0.9 2-2 2h-8.11c-1.1 0-2-0.9-2-2v-16.08c0-1.1 0.9-2 2-2h8.11m0-2h-8.11c-2.21 0-4 1.79-4 4v16.08c0 2.21 1.79 4 4 4h8.11c2.21 0 4-1.79 4-4v-16.08c0-2.21-1.79-4-4-4z" fill="#424242"/></g><g opacity=".2"><path d="m88.09 46.17c1.1 0 2 0.9 2 2v16.08c0 1.1-0.9 2-2 2h-8.11c-1.1 0-2-0.9-2-2v-16.08c0-1.1 0.9-2 2-2h8.11m0-2h-8.11c-2.21 0-4 1.79-4 4v16.08c0 2.21 1.79 4 4 4h8.11c2.21 0 4-1.79 4-4v-16.08c0-2.21-1.79-4-4-4z" fill="#424242"/></g><g opacity=".2"><path d="m112 46.17c1.1 0 2 0.9 2 2v16.08c0 1.1-0.9 2-2 2h-8.11c-1.1 0-2-0.9-2-2v-16.08c0-1.1 0.9-2 2-2h8.11m0-2h-8.11c-2.21 0-4 1.79-4 4v16.08c0 2.21 1.79 4 4 4h8.11c2.21 0 4-1.79 4-4v-16.08c0-2.21-1.79-4-4-4z" fill="#424242"/></g><path d="m40.04 69.91h-20.04v-25.91h20.04c2.21 0 4 1.79 4 4v17.91c0 2.21-1.79 4-4 4z" fill="#4FC3F7"/><g opacity=".2"><path d="m40.04 46c1.1 0 2 0.9 2 2v17.91c0 1.1-0.9 2-2 2h-18.04v-21.91h18.04m0-2h-20.04v25.91h20.04c2.21 0 4-1.79 4-4v-17.91c0-2.21-1.79-4-4-4z" fill="#424242"/></g><path d="m120 28h-96c-2.21 0-4 1.79-4 4v5.08h104v-5.08c0-2.21-1.79-4-4-4z" fill="#37474F"/><g opacity=".2"><path d="m120.02 31c0.29 0 0.98 0.07 0.98 0.75v63.25h-94.96c-1.59 0-3.04-1.55-3.04-3.25v-60c0-0.74 1-0.75 1.04-0.75h95.96m0.04-3h-96c-2.21 0-4.04 1.54-4.04 3.75v60c0 3.3 2.74 6.25 6.04 6.25h97.96v-66.25c0-2.21-1.75-3.75-3.96-3.75z" fill="#424242"/></g></svg>

<?xml version="1.0" encoding="utf-8"?>
<!-- Generator: Adobe Illustrator 24.0.3, SVG Export Plug-In . SVG Version: 6.00 Build 0)  -->
<svg version="1.1" id="Layer_1" xmlns="http://www.w3.org/2000/svg" xmlns:xlink="http://www.w3.org/1999/xlink" x="0px" y="0px"
	 viewBox="0 0 128 128" style="enable-background:new 0 0 128 128;" xml:space="preserve">
<path style="fill:#81C784;" d="M4,44l29.1-25C44,10,44.6,11,52,15.7l32.2,20.5l19-19.4c3.6-4.6,6.2-7.4,10.9-0.9l9.9,12.3v95.9H4V44
	z"/>
<g style="opacity:0.2;">
	<path style="fill:#424242;" d="M109,15c0.1,0,0.9,0.3,2.6,2.6l0.1,0.1l9.3,11.5V121H7V45.4l28-24c4.7-3.9,7.7-6.1,9.5-6.1
		c1.1,0,2.7,1,5.2,2.6l0.8,0.5l32.2,20.5c0.5,0.3,1.1,0.5,1.6,0.5c0.8,0,1.6-0.3,2.2-0.9l19-19.4c0.1-0.1,0.1-0.1,0.2-0.2
		C106.3,17.5,108.2,15.1,109,15 M109,12c-2,0-3.8,2.1-5.9,4.7L84.2,36.2L52,15.7c-3.4-2.2-5.3-3.5-7.5-3.5c-2.6,0-5.5,1.9-11.4,6.8
		L4,44v80h120V28.1l-10-12.3C112,13.1,110.5,12,109,12z"/>
</g>
<rect x="4" y="101" style="fill:#8D6E63;" width="119.8" height="23"/>
<rect x="4" y="101" style="fill:#424242;" width="119.9" height="7"/>
<g style="opacity:0.2;">
	<path style="fill:#EEEEEE;" d="M121.9,103v19H6v-19H121.9 M123.9,101H4v23h119.8v-23H123.9z"/>
</g>
<circle cx="33" cy="99" r="6"/>
<circle cx="50" cy="99" r="6"/>
<circle cx="101" cy="99" r="6"/>
<circle cx="118" cy="99" r="6"/>
<path style="fill:#FFF8E1;" d="M20,37.1V92c0,3.3,2.7,6,6,6h98V37.1H20z"/>
<path style="fill:#4FC3F7;" d="M64,68.2h-8.1c-2.2,0-4-1.8-4-4v-16c0-2.2,1.8-4,4-4H64c2.2,0,4,1.8,4,4v16.1
	C68,66.5,66.2,68.2,64,68.2z"/>
<path style="fill:#4FC3F7;" d="M88.1,68.2H80c-2.2,0-4-1.8-4-4v-16c0-2.2,1.8-4,4-4h8.1c2.2,0,4,1.8,4,4v16.1
	C92.1,66.5,90.3,68.2,88.1,68.2z"/>
<path style="fill:#4FC3F7;" d="M112,68.2h-8.1c-2.2,0-4-1.8-4-4v-16c0-2.2,1.8-4,4-4h8.1c2.2,0,4,1.8,4,4v16.1
	C116,66.5,114.2,68.2,112,68.2z"/>
<linearGradient id="SVGID_1_" gradientUnits="userSpaceOnUse" x1="72" y1="20.9683" x2="72" y2="52.8157" gradientTransform="matrix(1 0 0 -1 0 127.8898)">
	<stop  offset="0" style="stop-color:#D32F2F"/>
	<stop  offset="0.9932" style="stop-color:#EF5350"/>
</linearGradient>
<path style="fill:url(#SVGID_1_);" d="M124,74.1V98H26c-3.3,0-6-2.7-6-6V74.1H124z"/>
<g style="opacity:0.2;">
	<path style="fill:#424242;" d="M64,46.2c1.1,0,2,0.9,2,2v16.1c0,1.1-0.9,2-2,2h-8.1c-1.1,0-2-0.9-2-2V48.2c0-1.1,0.9-2,2-2H64
		 M64,44.2h-8.1c-2.2,0-4,1.8-4,4v16.1c0,2.2,1.8,4,4,4H64c2.2,0,4-1.8,4-4V48.2C68,46,66.2,44.2,64,44.2z"/>
</g>
<g style="opacity:0.2;">
	<path style="fill:#424242;" d="M88.1,46.2c1.1,0,2,0.9,2,2v16.1c0,1.1-0.9,2-2,2H80c-1.1,0-2-0.9-2-2V48.2c0-1.1,0.9-2,2-2H88.1
		 M88.1,44.2H80c-2.2,0-4,1.8-4,4v16.1c0,2.2,1.8,4,4,4h8.1c2.2,0,4-1.8,4-4V48.2C92.1,46,90.3,44.2,88.1,44.2z"/>
</g>
<g style="opacity:0.2;">
	<path style="fill:#424242;" d="M112,46.2c1.1,0,2,0.9,2,2v16.1c0,1.1-0.9,2-2,2h-8.1c-1.1,0-2-0.9-2-2V48.2c0-1.1,0.9-2,2-2H112
		 M112,44.2h-8.1c-2.2,0-4,1.8-4,4v16.1c0,2.2,1.8,4,4,4h8.1c2.2,0,4-1.8,4-4V48.2C116,46,114.2,44.2,112,44.2z"/>
</g>
<path style="fill:#4FC3F7;" d="M40,69.9H20V44h20c2.2,0,4,1.8,4,4v17.9C44,68.1,42.2,69.9,40,69.9z"/>
<g style="opacity:0.2;">
	<path style="fill:#424242;" d="M40,46c1.1,0,2,0.9,2,2v17.9c0,1.1-0.9,2-2,2H22V46H40 M40,44H20v25.9h20c2.2,0,4-1.8,4-4V48
		C44,45.8,42.2,44,40,44z"/>
</g>
<path style="fill:#37474F;" d="M120,28H24c-2.2,0-4,1.8-4,4v5.1h104V32C124,29.8,122.2,28,120,28z"/>
<g style="opacity:0.2;">
	<path style="fill:#424242;" d="M120,31c0.3,0,1,0.1,1,0.8V95H26c-1.6,0-3-1.6-3-3.2v-60c0-0.7,1-0.8,1-0.8L120,31 M120,28H24
		c-2.2,0-4,1.5-4,3.8v60c0,3.3,2.7,6.2,6,6.2h98V31.8C124,29.5,122.2,28,120,28z"/>
</g>
</svg>
